X:1
T:wronzi's cowbell groove cadence
T:wronzi's cowbell groove cadence
%%score [ 1 2 3 4 ]
L:1/8
M:4/4
K:C
V:1 perc nm="Snare Drum" snm="S.D."
K:none
I:percmap B B 50 normal
I:percmap ^B B 52 x
V:2 perc nm="Tenor Drums" snm="T.D."
K:none
I:percmap A A 48 normal
I:percmap F F 24 normal
I:percmap e e 96 normal
I:percmap g g 120 normal
V:3 perc nm="Bass Drums" snm="B.D."
K:none
I:percmap A A 24 normal
I:percmap F F 1 normal
I:percmap c c 48 normal
I:percmap e e 69 normal
V:4 perc nm="Cymbals" snm="Cym."
K:none
I:percmap B B 72 normal
I:percmap ^B B 76 x
V:1
 !>!B/B/B/!>!B/ !///!B2 !>!B/B/B/!>!B/ !///!B2 | %1
 !>!B/B/B/!>!B/ B/B/!>!B/!/!B/ !//!B!^!^B !>!B/!>!B/!>!B/!>!B/ | %2
 !>!B/B/B/!>!B/ !///!B2 !>!B/B/B/!>!B/ !///!B2 | %3
 !>!B/B/B/!>!B/ B/B/!>!B/!/!B/ !//!B!^!^B!>(! B/B/B/B/!>)! | %4
!p! !>!B/B/B/!>!B/ B/B/B/B/ !>!B/B/B/!>!B/ B/B/B/B/ | %5
 !>!B/B/B/!>!B/ B/B/!>!B/!/!B/ !//!B!^!^B !>!B/!>!B/!>!B/!>!B/ | %6
 !>!B/B/B/!>!B/ B/B/B/B/ !>!B/B/B/!>!B/ B/B/B/B/ | %7
!<(! !>!B/B/B/!>!B/ B/B/!>!B/!/!B/ !//!B!^!^B !>!B/!>!B/!>!B/!>!B/!<)! | B2 z2 z4 | z4 z2 z B | %10
 B2 z2 z2 z B | B2 z B z2 !>!B/!>!B/!>!B/!>!B/ | %12
 B/B/B/!>!B/ !>!B/B/B/B/ B/!>!B/B/!>!B/ !>!B/B/B/B/ | %13
 B/B/B/!>!B/ !>!B/B/B/B/ B/!>!B/B/!>!B/ !>!B/B/B/B/ | %14
 B/B/B/!>!B/ !>!B/B/B/B/ B/!>!B/B/!>!B/ !>!B/B/B/B/ | %15
 !>!B!^!^B/!^!^B/ !^!^B^B !^!^B/!^!^B/!^!^B B/B/B/B/ | %16
 B/B/B/!>!B/ !>!B/B/B/B/ B/!>!B/B/!>!B/ !>!B/B/B/B/ | %17
 B/B/B/!>!B/ !>!B/B/B/B/ B/!>!B/B/!>!B/ !>!B/B/B/B/ | %18
 B/B/B/!>!B/ !>!B/B/B/B/ B/!>!B/B/!>!B/ !>!B/B/B/B/ | %19
 !>!B!^!^B/!^!^B/ !^!^B^B !^!^B/!^!^B/!^!^B B/B/B/B/ | B2!p! !//!B z !//!B z !//!B z | %21
 !//!B z!mf! !^!^B!//!B !>!B/B/B/!>!B/ B/B/!>!B | !>!B/B/B/B/ !>!B/B/B/B/ !>!B/B/B/!>!B/ B/B/!>!B | %23
!<(! !///!B2 !///!B2 !>!B/B/B/!>!B/ B/B/!^!^B!<)! | %24
 !>!B!^!^B/!^!^B/ !^!^BB !^!^B/!^!^B/!^!^B B/B/B/B/ |!ff! !>!B!^!^B !^!B/!^!B!^!B/ !^!B2 z2 :| %26
V:2
 !>!e>!>![Ac] z c/c/ !>!e>!>![Ac] z c/c/ | !>!e>!>![Ac] z !>![FA] z !>!g !>!c/!>!c/!>!c/!>!c/ | %2
 !>!e>!>![Ac] z c/c/ !>!e>!>![Ac] z c/c/ | !>!e>!>![Ac] z !>![FA] z !>!g!>(! c/c/c/c/!>)! | %4
 !>!e>!>![Ac] z g/g/ !>!e>!>![Ac] z g/g/ | !>!e>!>![Ac] z !>![FA] z !>!g !>!c/!>!c/!>!c/!>!c/ | %6
 !>!e>!>![Ac] z g/g/ !>!e>!>![Ac] z g/g/ | %7
!<(! !>!e>!>![Ac] z !>![FA] z !>!g !>!F/!>!F/!>!F/!>!F/!<)! | !>!Fg g/g/e/g/ z/ g/c/g/ gF | %9
 !>!Fg g/g/e/g/ z/ g/c/g/ gF | !>!Fg g/g/e/g/ z/ g/c/g/ gF | !>!Fg g/g/e/g/ z/ g/c/g/ gF | %12
 !>!Fg g/g/e/g/ z/ g/c/g/ gF | !>!Fg g/g/e/g/ z/ g/c/g/ gF | !>!Fg g/g/e/g/ z/ g/c/g/ gF | %15
 !>![FA]!^!g/!^!g/ !^!g!>![FA] !^!g/!^!g/!^!g F/F/F/F/ | !>!Fg g/g/e/g/ z/ g/c/g/ gF | %17
 !>!Fg g/g/e/g/ z/ g/c/g/ gF | !>!Fg g/g/e/g/ z/ g/c/g/ gF | %19
 !>![FA]!^!g/!^!g/ !^!g!>![FA] !^!g/!^!g/!^!g F/F/F/F/ | %20
 !>!F2 !>!e/e/e/e/ !>!c/c/c/!>!F/ F/F/!>!A | A/c/!>!e !>!e/e/e/e/ !>!c/c/c/!>!F/ F/F/!>!A | %22
 z2 !>!e/e/e/e/ !>!c/c/c/!>!F/ F/F/!>!A |!<(! A/c/!>!e !>!e/e/e/e/ !>!c/c/c/!>!F/ F/F/!>!A!<)! | %24
 !>![FA]!^!g/!^!g/ !^!g!>![FA] !^!g/!^!g/!^!g F/F/F/F/ |!ff! !>!F!^!g !^!F/!^!F!^!F/ !^!F2 z2 :| %26
V:3
!ff! !>!e>!>!c z2 !>!e>!>!c z2 | !>!e>!>!c z !>!A z2 !>!F/!>!F/!>!F/!>!F/ | %2
 !>![FAce]>!>![FAce] z2 !>![FAce]>!>![FAce] z2 | !>![FAce]>!>![FAce] z [FAce] z4 | %4
!p! !>!e>!>!c z2 !>!e>!>!c z2 | !>!e>!>!c z !>!A z2 z2 | !>!e>!>!c z2 !>!e>!>!c z2 | %7
!<(! !>!F>!>!A z !>![ce] z2 [FAce]/[FAce]/[FAce]/[FAce]/!<)! | [FAce]2 z2 z4 | z4 z2 z !>![FAce] | %10
 !>![FAce]2 z2 z2 z !>![FAce] | %11
 !>![FAce]2 z !>![FAce] z2 !>![FAce]/!>![FAce]/!>![FAce]/!>![FAce]/ | [FAce]2 e2 c>c z c | %13
 FFec A>A z A | F2 e2 c>c z c | !>![FAce]2 z !>![FAce] z2 !>![FAce]2 | [FAce]2 e2 c>c z c | %17
 FFec A>A z A | F2 e2 c>c z c | !>![FAce]2 z !>![FAce] z2 !>![FAce]2 | !>![FAce]2 z2 z4 | z8 | %22
 F2 e2 c>c z c |!<(! e/e/c/c/ A/A/F/F/ !>![FAce]>!>![FAce] z !>![FAce]!<)! | %24
 !>![FAce]2 z !>![FAce] z2 !>![FAce]2 | !>![FAce]2 [FAce]/[FAce][FAce]/ !>![FAce]2 z2 :| %26
V:4
 z8 | z8 | B4 B4 | B>B z B z4 |!p! ^B2 ^B2 ^B2 ^B2 | ^B2 ^B2 ^B2 ^B2 | ^B2 ^B2 ^B2 ^B2 | %7
!<(! B>B z B z4!<)! | B8 | z8 | B8 | B3 B3 B2 | B4 z ^B z ^B | z ^B z ^B z ^B z ^B | %14
 z ^B z ^B z ^B z ^B | B3 B3 B2 | B4 z ^B z ^B | z ^B z ^B z ^B z ^B | z ^B z ^B z ^B z ^B | %19
 B3 B3 B2 | B8 | z8 | z2 B2 z2 B2 |!<(! z B B2 B4!<)! | B3 B3 B2 | B4 ^B z z2 :| %26

